X:623
T:Shores of Lough Gowna
M:6/8
L:1/8
K:D
A|"Bm"B3 BAF|"D"FEF DFA|"Bm"BcB BAF|"D"d2 e fed|
"Bm"(3Bcd B BAF|"D"FEF DFA|"Bm"def "Em"geg|"Bm"fdB B2:|
|:A|"D"def a2 b|afb afe|dFA def|"Em"g3 "Bm"fdB|
"D"def a2 b|afb afe|def "Em"geg|"Bm"fdB B2:|
